resources/svg/minor-linear-model.svg

<svg xmlns="http://www.w3.org/2000/svg" viewBox="0 0 20 20" fill="currentColor"><path d="M4 9C4.55228 9 5 9.44772 5 10L5 16C5 16.5523 4.55229 17 4 17C3.44772 17 3 16.5523 3 16L3 10C3 9.44772 3.44772 9 4 9Z" fill="#5C5F62"/><path d="M8 9C8.55228 9 9 9.44772 9 10L9 16C9 16.5523 8.55229 17 8 17C7.44772 17 7 16.5523 7 16L7 10C7 9.44772 7.44772 9 8 9Z" fill="#5C5F62"/><path d="M12 9C12.5523 9 13 9.44772 13 10L13 16C13 16.5523 12.5523 17 12 17C11.4477 17 11 16.5523 11 16L11 10C11 9.44772 11.4477 9 12 9Z" fill="#5C5F62"/><path d="M16 9C16.5523 9 17 9.44772 17 10L17 16C17 16.5523 16.5523 17 16 17C15.4477 17 15 16.5523 15 16L15 10C15 9.44772 15.4477 9 16 9Z" fill="#5C5F62"/></svg>

<svg xmlns="http://www.w3.org/2000/svg" viewBox="0 0 20 20" fill="currentColor"><path d="M4 9a1 1 0 0 1 1 1v6a1 1 0 1 1-2 0v-6a1 1 0 0 1 1-1Z"/><path d="M8 9a1 1 0 0 1 1 1v6a1 1 0 1 1-2 0v-6a1 1 0 0 1 1-1Z"/><path d="M12 9a1 1 0 0 1 1 1v6a1 1 0 1 1-2 0v-6a1 1 0 0 1 1-1Z"/><path d="M16 9a1 1 0 0 1 1 1v6a1 1 0 1 1-2 0v-6a1 1 0 0 1 1-1Z"/></svg>
